X:193
T:Reel 193
M:4/4
K:Dmaj
L:1/8
AG|FEFG ABcB|ABAF E2d2|FEFG ABcA|GEEF G2AG|FEFG ABcA|FBcd AGFD|AEFG AGFG|Addc d2|zB|ABde fded|ABce dBAF|ABce dcde|fedc defg|abag fedB|Acde fdec|ABce dcAB|cAGE D2|
